X:15
T:Gospel Verse, Easter V
M:6/8
L:1/8
K:F min
V:1 clef=treble
[V:1] FAB (cB)A | BAG (ABA) | G2E F3 | F2G FEF | (AGF) C3 | GAG F3 ||
w: I am the way, - the | truth and the life, - - | says the Lord. | No one comes to the | Fa - - ther, ex-cept through me. ||

